src/assets/duotone/ShoppingBag.svg

<svg width="24" height="24" viewBox="0 0 24 24"  xmlns="http://www.w3.org/2000/svg">
<path opacity="0.4" d="M16.4899 22H7.50984C3.99984 22 3.23984 19.99 3.52984 17.53L4.42984 10.03C4.65984 8.09 4.99984 6.5 8.39984 6.5H15.5999C18.9999 6.5 19.3399 8.09 19.5699 10.03L20.3199 16.28L20.4698 17.53C20.4798 17.61 20.4898 17.69 20.4998 17.77C20.7098 20.12 19.8899 22 16.4899 22Z" />
<path d="M16 8.75C15.59 8.75 15.25 8.41 15.25 8V4.5C15.25 3.42 14.58 2.75 13.5 2.75H10.5C9.42 2.75 8.75 3.42 8.75 4.5V8C8.75 8.41 8.41 8.75 8 8.75C7.59 8.75 7.25 8.41 7.25 8V4.5C7.25 2.59 8.59 1.25 10.5 1.25H13.5C15.41 1.25 16.75 2.59 16.75 4.5V8C16.75 8.41 16.41 8.75 16 8.75Z" />
<path d="M20.5 17.7703C20.47 17.7803 20.44 17.7803 20.41 17.7803H8C7.59 17.7803 7.25 17.4403 7.25 17.0303C7.25 16.6103 7.59 16.2803 8 16.2803H20.32L20.47 17.5303C20.48 17.6103 20.49 17.6903 20.5 17.7703Z" />
</svg>

<?xml version="1.0" encoding="UTF-8"?>
<svg width="24" height="24" viewBox="0 0 24 24" xmlns="http://www.w3.org/2000/svg">
 <path d="m16.49 22h-8.9801c-3.51 0-4.27-2.01-3.98-4.47l0.9-7.5c0.23-1.94 0.57-3.53 3.97-3.53h7.2001c3.4 0 3.74 1.59 3.97 3.53l0.75 6.25 0.1499 1.25 0.03 0.24c0.21 2.35-0.6099 4.23-4.0099 4.23z" opacity=".4"/>
 <path d="m16 8.75c-0.41 0-0.75-0.34-0.75-0.75v-3.5c0-1.08-0.67-1.75-1.75-1.75h-3c-1.08 0-1.75 0.67-1.75 1.75v3.5c0 0.41-0.34 0.75-0.75 0.75s-0.75-0.34-0.75-0.75v-3.5c0-1.91 1.34-3.25 3.25-3.25h3c1.91 0 3.25 1.34 3.25 3.25v3.5c0 0.41-0.34 0.75-0.75 0.75z"/>
 <path d="m20.5 17.77c-0.03 0.01-0.06 0.01-0.09 0.01h-12.41c-0.41 0-0.75-0.34-0.75-0.75 0-0.42 0.34-0.75 0.75-0.75h12.32l0.15 1.25 0.03 0.24z"/>
</svg>
